Newaita-dark/apps/24/com.github.bitseater.weather.svg

<svg height="24pt" viewBox="0 0 24 24" width="24pt" xmlns="http://www.w3.org/2000/svg" xmlns:xlink="http://www.w3.org/1999/xlink"><linearGradient id="a" gradientTransform="matrix(.00286287 0 0 .0468795 11.176432 10.079088)" gradientUnits="userSpaceOnUse" x1="254" x2="254" y1="233.5" y2="254.66667"><stop offset="0" stop-opacity=".27451"/><stop offset="1" stop-opacity="0"/></linearGradient><linearGradient id="b"><stop offset="0" stop-opacity=".313725"/><stop offset=".222222" stop-opacity=".27451"/><stop offset="1" stop-opacity="0"/></linearGradient><radialGradient id="c" cx="450.90894" cy="189.57936" gradientTransform="matrix(.00000013 -.0585994 -.105479 -.00000008 32.15201 47.696501)" gradientUnits="userSpaceOnUse" r="21.166656" xlink:href="#b"/><radialGradient id="d" cx="450.90894" cy="189.57936" gradientTransform="matrix(-.00000013 .0585994 .105479 .00000008 -8.337233 -5.645609)" gradientUnits="userSpaceOnUse" r="21.166656" xlink:href="#b"/><radialGradient id="e" cx="450.90894" cy="189.57936" gradientTransform="matrix(-.00000013 -.0585994 .105479 -.00000008 -8.337233 47.696501)" gradientUnits="userSpaceOnUse" r="21.166656" xlink:href="#b"/><radialGradient id="f" cx="450.90894" cy="189.57936" gradientTransform="matrix(.00000013 .0585994 -.105479 .00000008 32.152009 -5.645609)" gradientUnits="userSpaceOnUse" r="21.166656" xlink:href="#b"/><linearGradient id="g" gradientUnits="userSpaceOnUse" x1="11.90736" x2="11.90736" y1="21.0253985937" y2="2.17207760142"><stop offset="0" stop-color="#bdbdbd"/><stop offset="1" stop-color="#e0e0e0"/></linearGradient><linearGradient id="h" gradientUnits="userSpaceOnUse" x1="11.90736" x2="11.90736" y1="21.0253985937" y2="2.17207760142"><stop offset="0" stop-color="#5c6bc0"/><stop offset="1" stop-color="#7986cb"/></linearGradient><linearGradient id="i" gradientUnits="userSpaceOnUse" x1="11.90736" x2="11.90736" y1="21.0253985937" y2="2.17207772546"><stop offset="0" stop-color="#f44336"/><stop offset="1" stop-color="#ef5350"/></linearGradient><path d="m11.410156 21.027344h.992188v.992187h-.992188zm0 0" fill="url(#a)"/><path d="m12.402344 21.027344h1.984375v-.996094h-1.984375zm0 0" fill="url(#c)"/><path d="m11.410156 21.027344h-1.984375v.992187h1.984375zm0 0" fill="url(#d)"/><path d="m11.410156 21.027344h-1.984375v-.996094h1.984375zm0 0" fill="url(#e)"/><path d="m12.402344 21.027344h1.984375v.992187h-1.984375zm0 0" fill="url(#f)"/><path d="m11.90625 2.171875c-1.375 0-2.480469 1.105469-2.480469 2.480469v6.050781c-1.769531.898437-2.976562 2.734375-2.976562 4.863281 0 3.023438 2.433593 5.460938 5.457031 5.460938s5.457031-2.4375 5.457031-5.460938c0-2.128906-1.207031-3.964844-2.976562-4.863281v-6.050781c0-1.375-1.105469-2.480469-2.480469-2.480469zm0 0" fill="url(#g)"/><path d="m11.90625 3.164062c-.824219 0-1.488281.664063-1.488281 1.488282v6.703125c-1.738281.609375-2.976563 2.261719-2.976563 4.210937 0 2.476563 1.992188 4.464844 4.464844 4.464844 2.476562 0 4.464844-1.988281 4.464844-4.464844 0-1.949218-1.238282-3.601562-2.976563-4.210937v-6.703125c0-.824219-.664062-1.488282-1.488281-1.488282zm0 0" fill="url(#h)"/><path d="m10.417969 9.621094v1.734375c-1.738281.609375-2.976563 2.261719-2.976563 4.210937 0 2.476563 1.992188 4.464844 4.464844 4.464844 2.476562 0 4.464844-1.988281 4.464844-4.464844 0-1.949218-1.238282-3.601562-2.976563-4.210937v-1.734375c-.742187-.75-2.230469-.75-2.976562 0zm0 0" fill="url(#i)"/><path d="m11.90625 2.171875c-1.375 0-2.480469 1.105469-2.480469 2.480469v.1875c0-1.375 1.105469-2.480469 2.480469-2.480469s2.480469 1.105469 2.480469 2.480469v-.1875c0-1.375-1.105469-2.480469-2.480469-2.480469zm-2.480469 8.53125c-1.769531.898437-2.976562 2.734375-2.976562 4.863281v.09375c.035156-2.089844 1.234375-3.886718 2.976562-4.773437zm4.960938 0v.183594c1.746093.886719 2.941406 2.683593 2.976562 4.773437 0-.03125 0-.0625 0-.09375 0-2.128906-1.207031-3.964844-2.976562-4.863281zm0 0" fill="#fff" fill-opacity=".960784"/><path d="m6.453125 15.433594c-.003906.046875-.003906.089844-.003906.132812 0 3.023438 2.433593 5.460938 5.457031 5.460938s5.457031-2.4375 5.457031-5.460938c0-.042968 0-.085937 0-.132812-.078125 2.957031-2.480469 5.3125-5.457031 5.3125-2.972656 0-5.378906-2.355469-5.453125-5.3125zm0 0" fill-opacity=".235294"/><path d="m959.908345 175.101391c-110.855557 0-199.980905 89.125348-199.980905 199.980905v487.827437c-142.663543 72.434029-239.977086 220.451392-239.977086 392.088547 0 243.756253 196.201738 440.272922 439.957991 440.272922s439.957992-196.516669 439.957992-440.272922c0-171.637155-97.313543-319.654518-239.977086-392.088547v-487.827437c0-110.855557-89.125349-199.980905-199.980906-199.980905zm0 0" fill="none" stroke="#212121" stroke-linecap="round" stroke-linejoin="round" stroke-width="11.338583" transform="scale(.0124035)"/><path d="m7.445312 15.683594c-.003906.035156-.003906.070312-.003906.105468 0 2.472657 1.992188 4.464844 4.464844 4.464844 2.476562 0 4.464844-1.992187 4.464844-4.464844 0-.035156 0-.070312 0-.105468-.054688 2.421875-2.027344 4.359375-4.464844 4.359375s-4.40625-1.9375-4.460938-4.359375zm0 0" fill="#fff7f7"/><path d="m11.90625 3.164062c-.824219 0-1.488281.664063-1.488281 1.488282v.25c0-.824219.664062-1.488282 1.488281-1.488282s1.488281.664063 1.488281 1.488282v-.25c0-.824219-.664062-1.488282-1.488281-1.488282zm-1.488281 8.191407c-1.738281.609375-2.976563 2.261719-2.976563 4.210937 0 .042969 0 .085938.003906.128906.050782-1.898437 1.273438-3.496093 2.972657-4.09375zm2.976562 0v.246093c1.703125.597657 2.925781 2.195313 2.976563 4.09375 0-.042968 0-.085937 0-.128906 0-1.949218-1.238282-3.601562-2.976563-4.210937zm0 0" fill-opacity=".235294"/><path d="m959.908345 255.093753c-66.450348 0-119.988543 53.538195-119.988543 119.988543v540.420841c-140.144099 49.129167-239.977086 182.344793-239.977086 339.495143 0 199.665974 160.614585 359.965629 359.965629 359.965629 199.665975 0 359.96563-160.299655 359.96563-359.965629 0-157.15035-99.832987-290.365976-239.977086-339.495143v-540.420841c0-66.450348-53.538196-119.988543-119.988544-119.988543zm0 0" fill="none" stroke="#212121" stroke-linecap="round" stroke-linejoin="round" stroke-width="11.338583" transform="scale(.0124035)"/></svg>

<?xml version="1.0" encoding="UTF-8"?>
<svg xmlns="http://www.w3.org/2000/svg" xmlns:xlink="http://www.w3.org/1999/xlink" width="24pt" height="24pt" viewBox="0 0 24 24" version="1.1">
<defs>
<linearGradient id="linear0" gradientUnits="userSpaceOnUse" x1="254" y1="233.5" x2="254" y2="254.66667" gradientTransform="matrix(0.00286287,0,0,0.0468795,11.176432,10.079088)">
<stop offset="0" style="stop-color:rgb(0%,0%,0%);stop-opacity:0.27451;"/>
<stop offset="1" style="stop-color:rgb(0%,0%,0%);stop-opacity:0;"/>
</linearGradient>
<radialGradient id="radial0" gradientUnits="userSpaceOnUse" cx="450.90894" cy="189.57936" fx="450.90894" fy="189.57936" r="21.166656" gradientTransform="matrix(0.000000130628,-0.0585994,-0.105479,-0.0000000761539,32.15201,47.696501)">
<stop offset="0" style="stop-color:rgb(0%,0%,0%);stop-opacity:0.313725;"/>
<stop offset="0.222222" style="stop-color:rgb(0%,0%,0%);stop-opacity:0.27451;"/>
<stop offset="1" style="stop-color:rgb(0%,0%,0%);stop-opacity:0;"/>
</radialGradient>
<radialGradient id="radial1" gradientUnits="userSpaceOnUse" cx="450.90894" cy="189.57936" fx="450.90894" fy="189.57936" r="21.166656" gradientTransform="matrix(-0.000000130628,0.0585994,0.105479,0.0000000761539,-8.337233,-5.645609)">
<stop offset="0" style="stop-color:rgb(0%,0%,0%);stop-opacity:0.313725;"/>
<stop offset="0.222222" style="stop-color:rgb(0%,0%,0%);stop-opacity:0.27451;"/>
<stop offset="1" style="stop-color:rgb(0%,0%,0%);stop-opacity:0;"/>
</radialGradient>
<radialGradient id="radial2" gradientUnits="userSpaceOnUse" cx="450.90894" cy="189.57936" fx="450.90894" fy="189.57936" r="21.166656" gradientTransform="matrix(-0.000000130628,-0.0585994,0.105479,-0.0000000761539,-8.337233,47.696501)">
<stop offset="0" style="stop-color:rgb(0%,0%,0%);stop-opacity:0.313725;"/>
<stop offset="0.222222" style="stop-color:rgb(0%,0%,0%);stop-opacity:0.27451;"/>
<stop offset="1" style="stop-color:rgb(0%,0%,0%);stop-opacity:0;"/>
</radialGradient>
<radialGradient id="radial3" gradientUnits="userSpaceOnUse" cx="450.90894" cy="189.57936" fx="450.90894" fy="189.57936" r="21.166656" gradientTransform="matrix(0.000000130628,0.0585994,-0.105479,0.0000000761539,32.152009,-5.645609)">
<stop offset="0" style="stop-color:rgb(0%,0%,0%);stop-opacity:0.313725;"/>
<stop offset="0.222222" style="stop-color:rgb(0%,0%,0%);stop-opacity:0.27451;"/>
<stop offset="1" style="stop-color:rgb(0%,0%,0%);stop-opacity:0;"/>
</radialGradient>
<linearGradient id="linear1" gradientUnits="userSpaceOnUse" x1="960" y1="1695.1182" x2="960" y2="175.11812" gradientTransform="matrix(0.0124035,0,0,0.0124035,0,0)">
<stop offset="0" style="stop-color:rgb(74.117647%,74.117647%,74.117647%);stop-opacity:1;"/>
<stop offset="1" style="stop-color:rgb(87.843137%,87.843137%,87.843137%);stop-opacity:1;"/>
</linearGradient>
<linearGradient id="linear2" gradientUnits="userSpaceOnUse" x1="960" y1="1695.1182" x2="960" y2="175.11812" gradientTransform="matrix(0.0124035,0,0,0.0124035,0,0)">
<stop offset="0" style="stop-color:rgb(36.078431%,41.960784%,75.294118%);stop-opacity:1;"/>
<stop offset="1" style="stop-color:rgb(47.45098%,52.54902%,79.607843%);stop-opacity:1;"/>
</linearGradient>
<linearGradient id="linear3" gradientUnits="userSpaceOnUse" x1="960" y1="1695.1182" x2="960" y2="175.11813" gradientTransform="matrix(0.0124035,0,0,0.0124035,0,0)">
<stop offset="0" style="stop-color:rgb(95.686275%,26.27451%,21.176471%);stop-opacity:1;"/>
<stop offset="1" style="stop-color:rgb(93.72549%,32.54902%,31.372549%);stop-opacity:1;"/>
</linearGradient>
</defs>
<g id="surface1">
<path style=" stroke:none;fill-rule:nonzero;fill:url(#linear0);" d="M 11.410156 21.027344 L 12.402344 21.027344 L 12.402344 22.019531 L 11.410156 22.019531 Z M 11.410156 21.027344 "/>
<path style=" stroke:none;fill-rule:nonzero;fill:url(#radial0);" d="M 12.402344 21.027344 L 14.386719 21.027344 L 14.386719 20.03125 L 12.402344 20.03125 Z M 12.402344 21.027344 "/>
<path style=" stroke:none;fill-rule:nonzero;fill:url(#radial1);" d="M 11.410156 21.027344 L 9.425781 21.027344 L 9.425781 22.019531 L 11.410156 22.019531 Z M 11.410156 21.027344 "/>
<path style=" stroke:none;fill-rule:nonzero;fill:url(#radial2);" d="M 11.410156 21.027344 L 9.425781 21.027344 L 9.425781 20.03125 L 11.410156 20.03125 Z M 11.410156 21.027344 "/>
<path style=" stroke:none;fill-rule:nonzero;fill:url(#radial3);" d="M 12.402344 21.027344 L 14.386719 21.027344 L 14.386719 22.019531 L 12.402344 22.019531 Z M 12.402344 21.027344 "/>
<path style=" stroke:none;fill-rule:nonzero;fill:url(#linear1);" d="M 11.90625 2.171875 C 10.53125 2.171875 9.425781 3.277344 9.425781 4.652344 L 9.425781 10.703125 C 7.65625 11.601562 6.449219 13.4375 6.449219 15.566406 C 6.449219 18.589844 8.882812 21.027344 11.90625 21.027344 C 14.929688 21.027344 17.363281 18.589844 17.363281 15.566406 C 17.363281 13.4375 16.15625 11.601562 14.386719 10.703125 L 14.386719 4.652344 C 14.386719 3.277344 13.28125 2.171875 11.90625 2.171875 Z M 11.90625 2.171875 "/>
<path style=" stroke:none;fill-rule:nonzero;fill:url(#linear2);" d="M 11.90625 3.164062 C 11.082031 3.164062 10.417969 3.828125 10.417969 4.652344 L 10.417969 11.355469 C 8.679688 11.964844 7.441406 13.617188 7.441406 15.566406 C 7.441406 18.042969 9.433594 20.03125 11.90625 20.03125 C 14.382812 20.03125 16.371094 18.042969 16.371094 15.566406 C 16.371094 13.617188 15.132812 11.964844 13.394531 11.355469 L 13.394531 4.652344 C 13.394531 3.828125 12.730469 3.164062 11.90625 3.164062 Z M 11.90625 3.164062 "/>
<path style=" stroke:none;fill-rule:nonzero;fill:url(#linear3);" d="M 10.417969 9.621094 L 10.417969 11.355469 C 8.679688 11.964844 7.441406 13.617188 7.441406 15.566406 C 7.441406 18.042969 9.433594 20.03125 11.90625 20.03125 C 14.382812 20.03125 16.371094 18.042969 16.371094 15.566406 C 16.371094 13.617188 15.132812 11.964844 13.394531 11.355469 L 13.394531 9.621094 C 12.652344 8.871094 11.164062 8.871094 10.417969 9.621094 Z M 10.417969 9.621094 "/>
<path style=" stroke:none;fill-rule:nonzero;fill:rgb(100%,100%,100%);fill-opacity:0.960784;" d="M 11.90625 2.171875 C 10.53125 2.171875 9.425781 3.277344 9.425781 4.652344 L 9.425781 4.839844 C 9.425781 3.464844 10.53125 2.359375 11.90625 2.359375 C 13.28125 2.359375 14.386719 3.464844 14.386719 4.839844 L 14.386719 4.652344 C 14.386719 3.277344 13.28125 2.171875 11.90625 2.171875 Z M 9.425781 10.703125 C 7.65625 11.601562 6.449219 13.4375 6.449219 15.566406 C 6.449219 15.597656 6.449219 15.628906 6.449219 15.660156 C 6.484375 13.570312 7.683594 11.773438 9.425781 10.886719 Z M 14.386719 10.703125 L 14.386719 10.886719 C 16.132812 11.773438 17.328125 13.570312 17.363281 15.660156 C 17.363281 15.628906 17.363281 15.597656 17.363281 15.566406 C 17.363281 13.4375 16.15625 11.601562 14.386719 10.703125 Z M 14.386719 10.703125 "/>
<path style=" stroke:none;fill-rule:nonzero;fill:rgb(0%,0%,0%);fill-opacity:0.235294;" d="M 6.453125 15.433594 C 6.449219 15.480469 6.449219 15.523438 6.449219 15.566406 C 6.449219 18.589844 8.882812 21.027344 11.90625 21.027344 C 14.929688 21.027344 17.363281 18.589844 17.363281 15.566406 C 17.363281 15.523438 17.363281 15.480469 17.363281 15.433594 C 17.285156 18.390625 14.882812 20.746094 11.90625 20.746094 C 8.933594 20.746094 6.527344 18.390625 6.453125 15.433594 Z M 6.453125 15.433594 "/>
<path style="fill:none;stroke-width:11.338583;stroke-linecap:round;stroke-linejoin:round;stroke:rgb(12.941176%,12.941176%,12.941176%);stroke-opacity:1;stroke-miterlimit:4;" d="M 959.908345 175.101391 C 849.052788 175.101391 759.92744 264.226739 759.92744 375.082296 L 759.92744 862.909733 C 617.263897 935.343762 519.950354 1083.361125 519.950354 1254.99828 C 519.950354 1498.754533 716.152092 1695.271202 959.908345 1695.271202 C 1203.664598 1695.271202 1399.866337 1498.754533 1399.866337 1254.99828 C 1399.866337 1083.361125 1302.552794 935.343762 1159.889251 862.909733 L 1159.889251 375.082296 C 1159.889251 264.226739 1070.763902 175.101391 959.908345 175.101391 Z M 959.908345 175.101391 " transform="matrix(0.0124035,0,0,0.0124035,0,0)"/>
<path style=" stroke:none;fill-rule:nonzero;fill:rgb(100%,96.862745%,96.862745%);fill-opacity:1;" d="M 7.445312 15.683594 C 7.441406 15.71875 7.441406 15.753906 7.441406 15.789062 C 7.441406 18.261719 9.433594 20.253906 11.90625 20.253906 C 14.382812 20.253906 16.371094 18.261719 16.371094 15.789062 C 16.371094 15.753906 16.371094 15.71875 16.371094 15.683594 C 16.316406 18.105469 14.34375 20.042969 11.90625 20.042969 C 9.46875 20.042969 7.5 18.105469 7.445312 15.683594 Z M 7.445312 15.683594 "/>
<path style=" stroke:none;fill-rule:nonzero;fill:rgb(0%,0%,0%);fill-opacity:0.235294;" d="M 11.90625 3.164062 C 11.082031 3.164062 10.417969 3.828125 10.417969 4.652344 L 10.417969 4.902344 C 10.417969 4.078125 11.082031 3.414062 11.90625 3.414062 C 12.730469 3.414062 13.394531 4.078125 13.394531 4.902344 L 13.394531 4.652344 C 13.394531 3.828125 12.730469 3.164062 11.90625 3.164062 Z M 10.417969 11.355469 C 8.679688 11.964844 7.441406 13.617188 7.441406 15.566406 C 7.441406 15.609375 7.441406 15.652344 7.445312 15.695312 C 7.496094 13.796875 8.71875 12.199219 10.417969 11.601562 Z M 13.394531 11.355469 L 13.394531 11.601562 C 15.097656 12.199219 16.320312 13.796875 16.371094 15.695312 C 16.371094 15.652344 16.371094 15.609375 16.371094 15.566406 C 16.371094 13.617188 15.132812 11.964844 13.394531 11.355469 Z M 13.394531 11.355469 "/>
<path style="fill:none;stroke-width:11.338583;stroke-linecap:round;stroke-linejoin:round;stroke:rgb(12.941176%,12.941176%,12.941176%);stroke-opacity:1;stroke-miterlimit:4;" d="M 959.908345 255.093753 C 893.457997 255.093753 839.919802 308.631948 839.919802 375.082296 L 839.919802 915.503137 C 699.775703 964.632304 599.942716 1097.84793 599.942716 1254.99828 C 599.942716 1454.664254 760.557301 1614.963909 959.908345 1614.963909 C 1159.57432 1614.963909 1319.873975 1454.664254 1319.873975 1254.99828 C 1319.873975 1097.84793 1220.040988 964.632304 1079.896889 915.503137 L 1079.896889 375.082296 C 1079.896889 308.631948 1026.358693 255.093753 959.908345 255.093753 Z M 959.908345 255.093753 " transform="matrix(0.0124035,0,0,0.0124035,0,0)"/>
</g>
</svg>
